svgs/thin/head-side-virus.svg

<svg xmlns="http://www.w3.org/2000/svg" viewBox="0 0 512 512"><!--! Font Awesome Pro 6.0.0-alpha3 by @fontawesome - https://fontawesome.com License - https://fontawesome.com/license (Commercial License) --><path d="M508.5 271.1c-7.641-17.12-16.17-41-25.22-66.25c-16.02-44.72-32.56-90.97-48.77-114C394.1 34.28 328 0 257.8 0h-57.78C89.67 0 0 89.81 0 200.2c0 55.44 23.28 108.6 64 146.6V504c0 4.406 3.578 8 8 8s8-3.594 8-8v-164.3l-2.656-2.375c-38.99-35.06-61.35-85-61.35-137.1C16 98.63 98.64 16 200.2 16h57.64c64.96 0 126.1 31.75 163.6 84.94c14.94 21.25 31.86 68.5 46.78 110.2c9.141 25.53 17.78 49.69 25.66 67.34c3.359 7.562 2.688 15.91-1.844 22.88c-4.516 6.938-11.86 10.94-20.13 10.94h-39.88v64c0 30.91-25.16 56.06-56.06 56.06h-72V504c0 4.406 3.578 8 8 8s8-3.594 8-8v-55.66h56c39.74 0 72.06-32.31 72.06-72.06v-48h23.88c13.58 0 26.13-6.812 33.55-18.22C512.9 298.6 514.1 284.4 508.5 271.1zM208 175.1c-8.836 0-16 7.162-16 16c0 8.836 7.163 15.1 15.1 15.1s16-7.164 16-16C224 183.2 216.8 175.1 208 175.1zM272 239.1c-8.836 0-15.1 7.163-15.1 16c0 8.836 7.165 16 16 16s16-7.164 16-16C288 247.2 280.8 239.1 272 239.1zM313.6 331.5c9.062 9.062 24.88 9.062 33.94 0c9.344-9.344 9.344-24.59 0-33.94l-8.594-8.562c-8.344-8.344-8.156-19-5.188-26.16S344.1 248 355.9 248h12.12c13.22 0 24-10.78 24-24s-10.78-24-24-24h-12.12c-11.81 0-19.19-7.656-22.16-14.81s-3.156-17.81 5.188-26.16l8.594-8.562c9.344-9.344 9.344-24.59 0-33.94c-9.375-9.375-24.56-9.375-33.94 0l-8.594 8.562c-8.281 8.312-18.88 8.25-26.16 5.188c-7.156-2.969-14.81-10.34-14.81-22.16V96c0-13.22-10.78-24-24-24s-24 10.78-24 24v12.12c0 11.81-7.656 19.19-14.81 22.16c-7.25 3-17.87 3.094-26.16-5.188L166.5 116.5c-9.375-9.375-24.56-9.375-33.94 0c-9.344 9.344-9.344 24.59 0 33.94l8.562 8.562c8.344 8.344 8.156 19 5.188 26.16S135.9 200 124.1 200H112c-13.22 0-24 10.78-24 24s10.78 24 24 24h12.12c11.81 0 19.19 7.656 22.16 14.81s3.156 17.81-5.188 26.16L132.5 297.5c-9.344 9.344-9.344 24.59 0 33.94c9.062 9.062 24.88 9.062 33.94 0l8.562-8.562c8.312-8.312 18.94-8.219 26.16-5.188c7.156 2.969 14.81 10.34 14.81 22.16V352c0 13.22 10.78 24 24 24s24-10.78 24-24v-12.12c0-11.81 7.656-19.19 14.81-22.16c7.219-3.062 17.84-3.156 26.16 5.188L313.6 331.5zM272.7 302.9c-15.22 6.281-24.69 20.47-24.69 36.94V352c0 4.406-3.594 8-8 8s-8-3.594-8-8v-12.12c0-16.47-9.469-30.66-24.69-36.94C202.2 300.8 196.9 299.8 191.8 299.8c-10.31 0-20.28 4.062-28.03 11.81l-8.562 8.562c-3 3-8.312 3-11.31 0c-3.125-3.125-3.125-8.188 0-11.31l8.562-8.562c11.66-11.66 14.97-28.34 8.656-43.59C154.8 241.5 140.6 232 124.1 232H112c-4.406 0-8-3.594-8-8s3.594-8 8-8h12.12c16.47 0 30.66-9.469 36.94-24.69c6.312-15.25 3-31.94-8.656-43.59L143.9 139.2c-3.125-3.125-3.125-8.188 0-11.31s8.188-3.125 11.31 0l8.562 8.562c11.66 11.62 28.34 15 43.59 8.656c15.22-6.281 24.69-20.47 24.69-36.94V96c0-4.406 3.594-8 8-8s8 3.594 8 8v12.12c0 16.47 9.469 30.66 24.69 36.94c15.28 6.344 31.94 2.969 43.59-8.656l8.594-8.562c3.125-3.125 8.188-3.125 11.31 0s3.125 8.188 0 11.31l-8.594 8.562c-11.66 11.66-14.97 28.34-8.656 43.59C325.2 206.5 339.4 216 355.9 216h12.12c4.406 0 8 3.594 8 8s-3.594 8-8 8h-12.12c-16.47 0-30.66 9.469-36.94 24.69c-6.312 15.25-3 31.94 8.656 43.59l8.594 8.562c3.125 3.125 3.125 8.188 0 11.31c-3 3-8.312 3-11.31 0l-8.594-8.562C304.6 299.9 287.9 296.6 272.7 302.9z"/></svg>

<svg xmlns="http://www.w3.org/2000/svg" viewBox="0 0 512 512"><!-- Font Awesome Pro 6.0.0-alpha2 by @fontawesome - https://fontawesome.com License - https://fontawesome.com/license (Commercial License) --><path d="M508.545 271.969C500.904 254.844 492.373 230.969 483.324 205.719C467.309 161 450.762 114.75 434.559 91.719C394.072 34.281 328.008 0 257.85 0H200.209C89.814 0 0 89.812 0 200.219C0 255.656 23.281 308.844 64.002 346.781V504C64.002 508.406 67.58 512 72.002 512S80.002 508.406 80.002 504V339.688L77.346 337.312C38.359 302.25 16 252.312 16 200.219C16 98.625 98.643 16 200.209 16H257.85C322.805 16 383.978 47.75 421.48 100.938C436.418 122.188 453.34 169.438 468.262 211.125C477.402 236.656 486.045 260.813 493.92 278.469C497.279 286.031 496.607 294.375 492.076 301.344C487.561 308.281 480.215 312.281 471.949 312.281H432.074V376.281C432.074 407.188 406.916 432.344 376.01 432.344H304.008V504C304.008 508.406 307.586 512 312.008 512S320.008 508.406 320.008 504V448.344H376.01C415.746 448.344 448.074 416.031 448.074 376.281V328.281H471.949C485.529 328.281 498.076 321.469 505.498 310.063C512.92 298.625 514.061 284.406 508.545 271.969ZM208.01 176C199.174 176 192.01 183.162 192.01 192C192.01 200.836 199.174 208 208.01 208S224.01 200.836 224.01 192C224.01 183.162 216.846 176 208.01 176ZM272.01 240C263.174 240 256.01 247.162 256.01 256C256.01 264.836 263.174 272 272.01 272S288.01 264.836 288.01 256C288.01 247.162 280.846 240 272.01 240ZM313.57 331.469C322.633 340.531 338.445 340.531 347.508 331.469C356.852 322.125 356.852 306.875 347.508 297.531L338.914 288.969C330.57 280.625 330.758 269.969 333.727 262.812S344.07 248 355.883 248H368.008C381.227 248 392.008 237.219 392.008 224S381.227 200 368.008 200H355.883C344.07 200 336.695 192.344 333.727 185.188S330.57 167.375 338.914 159.031L347.508 150.469C356.852 141.125 356.852 125.875 347.508 116.531C338.133 107.156 322.945 107.156 313.57 116.531L304.977 125.094C296.695 133.406 286.102 133.344 278.82 130.281C271.664 127.313 264.008 119.938 264.008 108.125V96C264.008 82.781 253.227 72 240.008 72S216.008 82.781 216.008 96V108.125C216.008 119.937 208.352 127.312 201.195 130.281C193.945 133.281 183.32 133.375 175.039 125.094L166.477 116.531C157.102 107.156 141.914 107.156 132.539 116.531C123.195 125.875 123.195 141.125 132.539 150.469L141.102 159.031C149.445 167.375 149.258 178.031 146.289 185.188S135.945 200 124.133 200H112.008C98.789 200 88.008 210.781 88.008 224S98.789 248 112.008 248H124.133C135.945 248 143.32 255.656 146.289 262.812S149.445 280.625 141.102 288.969L132.539 297.531C123.195 306.875 123.195 322.125 132.539 331.469C141.602 340.531 157.414 340.531 166.477 331.469L175.039 322.906C183.352 314.594 193.977 314.688 201.195 317.719C208.352 320.688 216.008 328.063 216.008 339.875V352C216.008 365.219 226.789 376 240.008 376S264.008 365.219 264.008 352V339.875C264.008 328.063 271.664 320.688 278.82 317.719C286.039 314.656 296.664 314.563 304.977 322.906L313.57 331.469ZM272.695 302.938C257.477 309.219 248.008 323.406 248.008 339.875V352C248.008 356.406 244.414 360 240.008 360S232.008 356.406 232.008 352V339.875C232.008 323.406 222.539 309.219 207.32 302.938C202.195 300.812 196.945 299.781 191.758 299.781C181.445 299.781 171.477 303.844 163.727 311.594L155.164 320.156C152.164 323.156 146.852 323.156 143.852 320.156C140.727 317.031 140.727 311.969 143.852 308.844L152.414 300.281C164.07 288.625 167.383 271.938 161.07 256.688C154.789 241.469 140.602 232 124.133 232H112.008C107.602 232 104.008 228.406 104.008 224S107.602 216 112.008 216H124.133C140.602 216 154.789 206.531 161.07 191.312C167.383 176.062 164.07 159.375 152.414 147.719L143.852 139.156C140.727 136.031 140.727 130.969 143.852 127.844S152.039 124.719 155.164 127.844L163.727 136.406C175.383 148.031 192.07 151.406 207.32 145.062C222.539 138.781 232.008 124.594 232.008 108.125V96C232.008 91.594 235.602 88 240.008 88S248.008 91.594 248.008 96V108.125C248.008 124.594 257.477 138.781 272.695 145.062C287.977 151.406 304.633 148.031 316.289 136.406L324.883 127.844C328.008 124.719 333.07 124.719 336.195 127.844S339.32 136.031 336.195 139.156L327.602 147.719C315.945 159.375 312.633 176.062 318.945 191.312C325.227 206.531 339.414 216 355.883 216H368.008C372.414 216 376.008 219.594 376.008 224S372.414 232 368.008 232H355.883C339.414 232 325.227 241.469 318.945 256.688C312.633 271.938 315.945 288.625 327.602 300.281L336.195 308.844C339.32 311.969 339.32 317.031 336.195 320.156C333.195 323.156 327.883 323.156 324.883 320.156L316.289 311.594C304.633 299.906 287.883 296.562 272.695 302.938Z"/></svg>
